germany/municipalities/07141129.svg

<?xml version="1.0" encoding="UTF-8" standalone="no"?>
<!-- Created with Inkscape (http://www.inkscape.org/) -->

<svg
   xmlns:dc="http://purl.org/dc/elements/1.1/"
   xmlns:cc="http://creativecommons.org/ns#"
   xmlns:rdf="http://www.w3.org/1999/02/22-rdf-syntax-ns#"
   xmlns:svg="http://www.w3.org/2000/svg"
   xmlns="http://www.w3.org/2000/svg"
   xmlns:sodipodi="http://sodipodi.sourceforge.net/DTD/sodipodi-0.dtd"
   xmlns:inkscape="http://www.inkscape.org/namespaces/inkscape"
   width="139.84261mm"
   height="158.65758mm"
   viewBox="0 0 139.8426 158.65758"
   version="1.1"
   id="svg865"
   inkscape:version="0.92.5 (2060ec1f9f, 2020-04-08)"
   sodipodi:docname="DEU Singhofen COA.svg">
  <defs
     id="defs859">
    <inkscape:path-effect
       effect="spiro"
       id="path-effect3644"
       is_visible="true" />
    <inkscape:path-effect
       effect="spiro"
       id="path-effect3636"
       is_visible="true" />
    <inkscape:path-effect
       effect="spiro"
       id="path-effect3544"
       is_visible="true" />
    <inkscape:path-effect
       effect="spiro"
       id="path-effect3466"
       is_visible="true" />
    <inkscape:path-effect
       effect="spiro"
       id="path-effect3544-2"
       is_visible="true" />
    <inkscape:path-effect
       effect="spiro"
       id="path-effect3644-8"
       is_visible="true" />
    <inkscape:path-effect
       effect="spiro"
       id="path-effect3644-3"
       is_visible="true" />
    <inkscape:path-effect
       effect="spiro"
       id="path-effect3636-0"
       is_visible="true" />
    <inkscape:path-effect
       effect="spiro"
       id="path-effect1727-0-1"
       is_visible="true" />
    <inkscape:path-effect
       effect="spiro"
       id="path-effect1731-8-3"
       is_visible="true" />
    <inkscape:path-effect
       effect="spiro"
       id="path-effect1727-3"
       is_visible="true" />
    <inkscape:path-effect
       effect="spiro"
       id="path-effect1731-7"
       is_visible="true" />
    <inkscape:path-effect
       effect="spiro"
       id="path-effect841-8"
       is_visible="true" />
  </defs>
  <sodipodi:namedview
     id="base"
     pagecolor="#ffffff"
     bordercolor="#666666"
     borderopacity="1.0"
     inkscape:pageopacity="0.0"
     inkscape:pageshadow="2"
     inkscape:zoom="1.3224365"
     inkscape:cx="264.26948"
     inkscape:cy="299.82534"
     inkscape:document-units="mm"
     inkscape:current-layer="layer1"
     showgrid="false"
     inkscape:window-width="1920"
     inkscape:window-height="1046"
     inkscape:window-x="-11"
     inkscape:window-y="-11"
     inkscape:window-maximized="1"
     fit-margin-top="0"
     fit-margin-left="0"
     fit-margin-right="0"
     fit-margin-bottom="0"
     inkscape:snap-global="true"
     inkscape:snap-midpoints="true"
     inkscape:snap-smooth-nodes="true" />
  <metadata
     id="metadata862">
    <rdf:RDF>
      <cc:Work
         rdf:about="">
        <dc:format>image/svg+xml</dc:format>
        <dc:type
           rdf:resource="http://purl.org/dc/dcmitype/StillImage" />
        <dc:title />
      </cc:Work>
    </rdf:RDF>
  </metadata>
  <g
     inkscape:label="Ebene 1"
     inkscape:groupmode="layer"
     id="layer1"
     transform="translate(10.560477,171.14685)">
    <path
       style="fill:#ffd700;fill-opacity:1;fill-rule:evenodd;stroke:none;stroke-width:2.11666656;stroke-linecap:round;stroke-linejoin:round;stroke-miterlimit:4;stroke-dasharray:none;stroke-opacity:1"
       inkscape:connector-curvature="0"
       d="m 128.22379,-170.08852 -0.31484,94.538471 c -1.53289,37.540967 -31.819235,61.981429 -68.548127,62.00245 -36.695856,-0.0461 -66.9935471,-24.497202 -68.5481271,-62.00245 l -0.31484,-94.538471 H 59.359167 Z"
       id="path10563-0-6-2-6-3-3"
       sodipodi:nodetypes="ccccccc" />
    <path
       style="opacity:1;fill:#000000;fill-opacity:1;fill-rule:evenodd;stroke:none;stroke-width:0.99999994;stroke-linecap:round;stroke-linejoin:round;stroke-miterlimit:4;stroke-dasharray:none;stroke-opacity:1;paint-order:fill markers stroke"
       d="m 39.113281,366.10352 v 110.9375 c 5.14958,8.52294 10.818507,16.65173 16.96875,24.36328 V 366.10352 Z m 31.351563,0 v 151.67773 c 5.385579,5.58342 11.047622,10.89765 16.96875,15.93359 V 366.10352 Z m 31.353516,0 v 178.93359 c 5.48045,3.98723 11.13824,7.76139 16.96875,11.30859 V 366.10352 Z m 122.61328,0 v 226.88867 c 5.6006,0.74741 11.25973,1.33484 16.96875,1.76758 V 366.10352 Z m 31.35352,0 v 229.40625 c 2.81897,0.0806 5.64439,0.13705 8.48437,0.14062 2.84015,-0.002 5.66533,-0.0543 8.48438,-0.13281 V 366.10352 Z m 31.35156,0 v 228.67187 c 5.7103,-0.42838 11.36923,-1.01098 16.9707,-1.75391 V 366.10352 Z m 122.61523,0 V 556.4707 c 5.82995,-3.54171 11.48908,-7.30902 16.96875,-11.29101 V 366.10352 Z m 31.35157,0 v 167.76562 c 5.92081,-5.03089 11.5837,-10.34092 16.96875,-15.91992 v -151.8457 z m 31.35351,0 v 135.47656 c 6.15081,-7.70899 11.81914,-15.83729 16.96875,-24.35938 V 366.10352 Z m -340.82056,68.96679 v 128.17578 c 5.52755,2.95987 11.18623,5.73258 16.96875,8.30664 V 435.07031 Z m 31.35156,0 v 142.38477 c 5.56055,2.09547 11.21927,4.01852 16.96875,5.76367 V 435.07031 Z m 31.35352,0 v 152.09571 c 5.58356,1.37422 11.24244,2.58484 16.96875,3.63086 V 435.07031 Z m 122.88863,0 v 155.76758 c 5.72625,-1.04108 11.38556,-2.24416 16.96874,-3.61328 v -152.1543 z m 31.35156,0 v 148.21875 c 5.74963,-1.73991 11.40836,-3.65781 16.96875,-5.74804 V 435.07031 Z m 31.35547,0 v 136.58203 c 5.78254,-2.56875 11.4395,-5.33631 16.96679,-8.29101 V 435.07031 Z"
       transform="matrix(0.26458333,0,0,0.26458333,-10.560477,-171.14685)"
       id="rect2664"
       inkscape:connector-curvature="0"
       sodipodi:nodetypes="cccccccccccccccccccccccccccccccccccccccccccccccccccccccccccccccccccccccccccc" />
    <path
       style="fill:none;fill-rule:evenodd;stroke:#000000;stroke-width:2.11666656;stroke-linecap:round;stroke-linejoin:round;stroke-miterlimit:4;stroke-dasharray:none;stroke-opacity:1"
       inkscape:connector-curvature="0"
       d="m 128.22379,-170.08852 -0.31484,94.538469 c -1.53289,37.540967 -31.819237,61.981427 -68.548129,62.002448 -36.695855,-0.0461 -66.9935452,-24.4972 -68.5481252,-62.002448 l -0.31484,-94.538469 H 59.359167 Z"
       id="path10563-0-6-2-6-3"
       sodipodi:nodetypes="ccccccc" />
    <g
       id="g3134"
       style="stroke:#000000;stroke-opacity:1;fill:#0030ff;fill-opacity:1">
      <path
         inkscape:transform-center-y="9.7623138"
         inkscape:transform-center-x="10.099735"
         sodipodi:nodetypes="cccc"
         inkscape:connector-curvature="0"
         id="path2742-75"
         d="m 79.248726,-130.452 31.144244,14.03068 0.12233,-26.00823 z"
         style="fill:#0030ff;stroke:#000000;stroke-width:1.32291667;stroke-linecap:round;stroke-linejoin:round;stroke-miterlimit:4;stroke-dasharray:none;stroke-opacity:1;fill-opacity:1" />
      <path
         inkscape:transform-center-y="13.003466"
         inkscape:transform-center-x="14.85018"
         sodipodi:nodetypes="cccc"
         inkscape:connector-curvature="0"
         id="path2742-75-3"
         d="m 81.167849,-117.27274 34.708361,11.37374 -0.23069,-24.6949 z"
         style="fill:#0030ff;stroke:#000000;stroke-width:1.32291667;stroke-linecap:round;stroke-linejoin:round;stroke-miterlimit:4;stroke-dasharray:none;stroke-opacity:1;fill-opacity:1" />
    </g>
    <path
       style="fill:#0030ff;fill-opacity:1;stroke:#000000;stroke-width:5;stroke-linecap:round;stroke-linejoin:round;stroke-miterlimit:4;stroke-dasharray:none;stroke-opacity:1"
       d="M 264.26953 37.222656 L 194.31445 81.054688 L 234.07617 136.17188 A 56.767554 56.767554 0 0 1 264.26953 127.50781 L 264.26953 37.222656 z "
       transform="matrix(0.26458333,0,0,0.26458333,-10.560477,-171.14685)"
       id="path2742-35" />
    <path
       style="fill:#0030ff;fill-opacity:1;stroke:#000000;stroke-width:5;stroke-linecap:round;stroke-linejoin:round;stroke-miterlimit:4;stroke-dasharray:none;stroke-opacity:1"
       d="M 191.19727 56.802734 L 152.53125 129.74023 L 214.23633 157.46289 A 56.767554 56.767554 0 0 1 215.10742 155.82031 A 56.767554 56.767554 0 0 1 236.2793 134.88672 L 191.19727 56.802734 z "
       transform="matrix(0.26458333,0,0,0.26458333,-10.560477,-171.14685)"
       id="path2742-24-6" />
    <path
       style="fill:#0030ff;fill-opacity:1;stroke:#000000;stroke-width:5;stroke-linecap:round;stroke-linejoin:round;stroke-miterlimit:4;stroke-dasharray:none;stroke-opacity:1"
       d="M 137.70508 110.29492 L 140.6875 192.79297 L 207.56641 185.99219 A 56.767554 56.767554 0 0 1 215.10742 155.82031 A 56.767554 56.767554 0 0 1 215.50195 155.21094 L 137.70508 110.29492 z "
       transform="matrix(0.26458333,0,0,0.26458333,-10.560477,-171.14685)"
       id="path2742-7-8" />
    <path
       style="fill:#0030ff;fill-opacity:1;stroke:#000000;stroke-width:5;stroke-linecap:round;stroke-linejoin:round;stroke-miterlimit:4;stroke-dasharray:none;stroke-opacity:1"
       d="M 118.125 183.36719 L 161.95703 253.32227 L 216.13086 214.24023 A 56.767554 56.767554 0 0 1 207.57422 183.36719 L 118.125 183.36719 z "
       transform="matrix(0.26458333,0,0,0.26458333,-10.560477,-171.14685)"
       id="path2742-2-5" />
    <path
       style="fill:#0030ff;fill-opacity:1;stroke:#000000;stroke-width:5;stroke-linecap:round;stroke-linejoin:round;stroke-miterlimit:4;stroke-dasharray:none;stroke-opacity:1"
       d="M 214.80664 211.92578 L 137.70508 256.43945 L 210.64258 295.10547 L 237.90039 234.43555 A 56.767554 56.767554 0 0 1 235.88477 233.36523 A 56.767554 56.767554 0 0 1 214.80664 211.92578 z "
       transform="matrix(0.26458333,0,0,0.26458333,-10.560477,-171.14685)"
       id="path2742-0-6" />
    <path
       style="fill:#0030ff;fill-opacity:1;stroke:#000000;stroke-width:5;stroke-linecap:round;stroke-linejoin:round;stroke-miterlimit:4;stroke-dasharray:none;stroke-opacity:1"
       d="M 235.5332 233.13867 L 191.19727 309.93164 L 273.69531 306.94922 L 266.97852 240.9043 A 56.767554 56.767554 0 0 1 235.88477 233.36523 A 56.767554 56.767554 0 0 1 235.5332 233.13867 z "
       transform="matrix(0.26458333,0,0,0.26458333,-10.560477,-171.14685)"
       id="path2742-27-2" />
    <path
       style="fill:#0030ff;fill-opacity:1;stroke:#000000;stroke-width:5;stroke-linecap:round;stroke-linejoin:round;stroke-miterlimit:4;stroke-dasharray:none;stroke-opacity:1"
       d="M 295.27148 231.68555 A 56.767554 56.767554 0 0 1 264.26953 240.90039 L 264.26953 329.51172 L 334.22461 285.67969 L 295.27148 231.68555 z "
       transform="matrix(0.26458333,0,0,0.26458333,-10.560477,-171.14685)"
       id="path2742-3-97" />
    <path
       style="fill:#0030ff;fill-opacity:1;stroke:#000000;stroke-width:5;stroke-linecap:round;stroke-linejoin:round;stroke-miterlimit:4;stroke-dasharray:none;stroke-opacity:1"
       d="M 315.02148 209.5957 A 56.767554 56.767554 0 0 1 313.43164 212.58789 A 56.767554 56.767554 0 0 1 292.99609 233.12109 L 337.3418 309.93164 L 376.00781 236.99414 L 315.02148 209.5957 z "
       transform="matrix(0.26458333,0,0,0.26458333,-10.560477,-171.14685)"
       id="path2742-3-2-5" />
    <path
       style="fill:#0030ff;fill-opacity:1;stroke:#000000;stroke-width:5;stroke-linecap:round;stroke-linejoin:round;stroke-miterlimit:4;stroke-dasharray:none;stroke-opacity:1"
       d="M 387.85156 173.94141 L 320.89844 180.75 A 56.767554 56.767554 0 0 1 313.77148 211.94727 L 390.83398 256.43945 L 387.85156 173.94141 z "
       transform="matrix(0.26458333,0,0,0.26458333,-10.560477,-171.14685)"
       id="path2742-3-9-1" />
    <path
       style="fill:#0030ff;fill-opacity:1;stroke:#000000;stroke-width:5;stroke-linecap:round;stroke-linejoin:round;stroke-miterlimit:4;stroke-dasharray:none;stroke-opacity:1"
       d="M 366.58203 113.41211 L 311.64453 153.04492 A 56.767554 56.767554 0 0 1 320.96875 183.36719 L 410.41406 183.36719 L 366.58203 113.41211 z "
       transform="matrix(0.26458333,0,0,0.26458333,-10.560477,-171.14685)"
       id="path2742-3-3-6" />
    <path
       style="fill:#0030ff;fill-opacity:1;stroke:#000000;stroke-width:5;stroke-linecap:round;stroke-linejoin:round;stroke-miterlimit:4;stroke-dasharray:none;stroke-opacity:1"
       d="M 317.89648 71.628906 L 290.0332 133.64844 A 56.767554 56.767554 0 0 1 292.65234 135.04102 A 56.767554 56.767554 0 0 1 313.04102 155.20898 L 390.83398 110.29492 L 317.89648 71.628906 z "
       transform="matrix(0.26458333,0,0,0.26458333,-10.560477,-171.14685)"
       id="path2742-3-30-8" />
    <path
       style="fill:#0030ff;fill-opacity:1;stroke:#000000;stroke-width:5;stroke-linecap:round;stroke-linejoin:round;stroke-miterlimit:4;stroke-dasharray:none;stroke-opacity:1"
       d="M 337.3418 56.802734 L 264.26953 59.445312 L 264.26953 127.50781 A 56.767554 56.767554 0 0 1 292.2832 134.8457 L 337.3418 56.802734 z "
       transform="matrix(0.26458333,0,0,0.26458333,-10.560477,-171.14685)"
       id="path2742-3-7-7" />
    <circle
       style="opacity:1;fill:#000000;fill-opacity:1;fill-rule:evenodd;stroke:#000000;stroke-width:0.26458333;stroke-linecap:round;stroke-linejoin:round;stroke-miterlimit:4;stroke-dasharray:none;stroke-opacity:1;paint-order:fill markers stroke"
       id="path2740-3"
       cx="59.360821"
       cy="-122.63097"
       r="4.0596418" />
    <path
       style="fill:none;stroke:#000000;stroke-width:1.32291667;stroke-linecap:round;stroke-linejoin:miter;stroke-opacity:1;stroke-miterlimit:4;stroke-dasharray:none"
       d="m 46.457747,-130.08062 25.910563,15.18098"
       id="path3300"
       inkscape:connector-curvature="0" />
    <path
       style="fill:none;stroke:#000000;stroke-width:1.32291667;stroke-linecap:round;stroke-linejoin:miter;stroke-opacity:1;stroke-miterlimit:4;stroke-dasharray:none"
       d="m 51.955087,-135.45807 15.006317,25.99117"
       id="path3350"
       inkscape:connector-curvature="0" />
    <path
       style="fill:none;stroke:#000000;stroke-width:1.32291667;stroke-linecap:round;stroke-linejoin:miter;stroke-opacity:1;stroke-miterlimit:4;stroke-dasharray:none"
       d="m 59.360835,-137.41041 v 30.00179"
       id="path3352"
       inkscape:connector-curvature="0" />
    <path
       style="fill:none;stroke:#000000;stroke-width:1.32291667;stroke-linecap:round;stroke-linejoin:miter;stroke-opacity:1;stroke-miterlimit:4;stroke-dasharray:none"
       d="m 66.772785,-135.46893 -15.015104,26.00669"
       id="path3356"
       inkscape:connector-curvature="0" />
    <path
       style="fill:none;stroke:#000000;stroke-width:1.32291667;stroke-linecap:round;stroke-linejoin:miter;stroke-opacity:1;stroke-miterlimit:4;stroke-dasharray:none"
       d="m 72.264958,-130.08114 -25.991179,15.00632"
       id="path3358"
       inkscape:connector-curvature="0" />
    <path
       style="fill:none;stroke:#000000;stroke-width:1.32291667;stroke-linecap:round;stroke-linejoin:miter;stroke-opacity:1;stroke-miterlimit:4;stroke-dasharray:none"
       d="M 74.362504,-122.63095 H 44.360201"
       id="path3360"
       inkscape:connector-curvature="0" />
  </g>
</svg>

<svg xmlns="http://www.w3.org/2000/svg" width="528.539" height="599.651" viewBox="0 0 139.843 158.658"><g transform="translate(10.56 171.147)"><path style="fill:gold;fill-opacity:1;fill-rule:evenodd;stroke:none;stroke-width:2.11666656;stroke-linecap:round;stroke-linejoin:round;stroke-miterlimit:4;stroke-dasharray:none;stroke-opacity:1" d="m128.224-170.089-.315 94.539c-1.533 37.54-31.82 61.981-68.548 62.002C22.665-13.594-7.633-38.045-9.187-75.55l-.315-94.539h68.861z"/><path style="opacity:1;fill:#000;fill-opacity:1;fill-rule:evenodd;stroke:none;stroke-width:.99999994;stroke-linecap:round;stroke-linejoin:round;stroke-miterlimit:4;stroke-dasharray:none;stroke-opacity:1;paint-order:fill markers stroke" d="M39.113 366.104V477.04a228.93 228.93 0 0 0 16.969 24.363v-135.3zm31.352 0V517.78a236.013 236.013 0 0 0 16.969 15.934V366.104zm31.353 0v178.933a247.486 247.486 0 0 0 16.97 11.309V366.104zm122.614 0v226.888c5.6.748 11.26 1.335 16.968 1.768V366.104zm31.353 0V595.51c2.82.08 5.645.137 8.485.14 2.84-.002 5.665-.054 8.484-.132V366.104zm31.352 0v228.671c5.71-.428 11.369-1.01 16.97-1.754V366.104zm122.615 0V556.47a247.12 247.12 0 0 0 16.969-11.291V366.104zm31.352 0v167.765a235.64 235.64 0 0 0 16.968-15.92V366.104zm31.353 0V501.58a228.629 228.629 0 0 0 16.969-24.36V366.105zm-340.82 68.966v128.176a259.513 259.513 0 0 0 16.968 8.307V435.07zm31.351 0v142.385a272.838 272.838 0 0 0 16.969 5.764V435.07zm31.354 0v152.096a286.188 286.188 0 0 0 16.968 3.63V435.07zm122.888 0v155.768a286.198 286.198 0 0 0 16.969-3.613V435.07zm31.352 0v148.22a272.654 272.654 0 0 0 16.968-5.749v-142.47zm31.355 0v136.582a259.16 259.16 0 0 0 16.967-8.29V435.07z" transform="matrix(.26458 0 0 .26458 -10.56 -171.147)"/><path style="fill:none;fill-rule:evenodd;stroke:#000;stroke-width:2.11666656;stroke-linecap:round;stroke-linejoin:round;stroke-miterlimit:4;stroke-dasharray:none;stroke-opacity:1" d="m128.224-170.089-.315 94.539c-1.533 37.54-31.82 61.981-68.548 62.002C22.665-13.594-7.633-38.045-9.187-75.55l-.315-94.539h68.861z"/><g style="stroke:#000;stroke-opacity:1;fill:#0030ff;fill-opacity:1"><path d="m79.249-130.452 31.144 14.03.122-26.008z" style="fill:#0030ff;stroke:#000;stroke-width:1.32291667;stroke-linecap:round;stroke-linejoin:round;stroke-miterlimit:4;stroke-dasharray:none;stroke-opacity:1;fill-opacity:1"/><path d="m81.168-117.273 34.708 11.374-.23-24.695z" style="fill:#0030ff;stroke:#000;stroke-width:1.32291667;stroke-linecap:round;stroke-linejoin:round;stroke-miterlimit:4;stroke-dasharray:none;stroke-opacity:1;fill-opacity:1"/></g><path style="fill:#0030ff;fill-opacity:1;stroke:#000;stroke-width:5;stroke-linecap:round;stroke-linejoin:round;stroke-miterlimit:4;stroke-dasharray:none;stroke-opacity:1" d="m264.27 37.223-69.956 43.832 39.762 55.117a56.768 56.768 0 0 1 30.194-8.664V37.223z" transform="matrix(.26458 0 0 .26458 -10.56 -171.147)"/><path style="fill:#0030ff;fill-opacity:1;stroke:#000;stroke-width:5;stroke-linecap:round;stroke-linejoin:round;stroke-miterlimit:4;stroke-dasharray:none;stroke-opacity:1" d="m191.197 56.803-38.666 72.937 61.705 27.723a56.768 56.768 0 0 1 .871-1.643 56.768 56.768 0 0 1 21.172-20.933l-45.082-78.084z" transform="matrix(.26458 0 0 .26458 -10.56 -171.147)"/><path style="fill:#0030ff;fill-opacity:1;stroke:#000;stroke-width:5;stroke-linecap:round;stroke-linejoin:round;stroke-miterlimit:4;stroke-dasharray:none;stroke-opacity:1" d="m137.705 110.295 2.982 82.498 66.88-6.8a56.768 56.768 0 0 1 7.54-30.173 56.768 56.768 0 0 1 .395-.61l-77.797-44.915z" transform="matrix(.26458 0 0 .26458 -10.56 -171.147)"/><path style="fill:#0030ff;fill-opacity:1;stroke:#000;stroke-width:5;stroke-linecap:round;stroke-linejoin:round;stroke-miterlimit:4;stroke-dasharray:none;stroke-opacity:1" d="m118.125 183.367 43.832 69.955 54.174-39.082a56.768 56.768 0 0 1-8.557-30.873h-89.449z" transform="matrix(.26458 0 0 .26458 -10.56 -171.147)"/><path style="fill:#0030ff;fill-opacity:1;stroke:#000;stroke-width:5;stroke-linecap:round;stroke-linejoin:round;stroke-miterlimit:4;stroke-dasharray:none;stroke-opacity:1" d="m214.807 211.926-77.102 44.513 72.938 38.666 27.257-60.67a56.768 56.768 0 0 1-2.015-1.07 56.768 56.768 0 0 1-21.078-21.44z" transform="matrix(.26458 0 0 .26458 -10.56 -171.147)"/><path style="fill:#0030ff;fill-opacity:1;stroke:#000;stroke-width:5;stroke-linecap:round;stroke-linejoin:round;stroke-miterlimit:4;stroke-dasharray:none;stroke-opacity:1" d="m235.533 233.139-44.336 76.793 82.498-2.983-6.716-66.045a56.768 56.768 0 0 1-31.094-7.539 56.768 56.768 0 0 1-.352-.226z" transform="matrix(.26458 0 0 .26458 -10.56 -171.147)"/><path style="fill:#0030ff;fill-opacity:1;stroke:#000;stroke-width:5;stroke-linecap:round;stroke-linejoin:round;stroke-miterlimit:4;stroke-dasharray:none;stroke-opacity:1" d="M295.271 231.686a56.768 56.768 0 0 1-31.001 9.214v88.612l69.955-43.832-38.954-53.994z" transform="matrix(.26458 0 0 .26458 -10.56 -171.147)"/><path style="fill:#0030ff;fill-opacity:1;stroke:#000;stroke-width:5;stroke-linecap:round;stroke-linejoin:round;stroke-miterlimit:4;stroke-dasharray:none;stroke-opacity:1" d="M315.021 209.596a56.768 56.768 0 0 1-1.59 2.992 56.768 56.768 0 0 1-20.435 20.533l44.346 76.81 38.666-72.937-60.987-27.398z" transform="matrix(.26458 0 0 .26458 -10.56 -171.147)"/><path style="fill:#0030ff;fill-opacity:1;stroke:#000;stroke-width:5;stroke-linecap:round;stroke-linejoin:round;stroke-miterlimit:4;stroke-dasharray:none;stroke-opacity:1" d="m387.852 173.941-66.954 6.809a56.768 56.768 0 0 1-7.127 31.197l77.063 44.492-2.982-82.498z" transform="matrix(.26458 0 0 .26458 -10.56 -171.147)"/><path style="fill:#0030ff;fill-opacity:1;stroke:#000;stroke-width:5;stroke-linecap:round;stroke-linejoin:round;stroke-miterlimit:4;stroke-dasharray:none;stroke-opacity:1" d="m366.582 113.412-54.937 39.633a56.768 56.768 0 0 1 9.324 30.322h89.445l-43.832-69.955z" transform="matrix(.26458 0 0 .26458 -10.56 -171.147)"/><path style="fill:#0030ff;fill-opacity:1;stroke:#000;stroke-width:5;stroke-linecap:round;stroke-linejoin:round;stroke-miterlimit:4;stroke-dasharray:none;stroke-opacity:1" d="m317.896 71.629-27.863 62.02a56.768 56.768 0 0 1 2.62 1.392 56.768 56.768 0 0 1 20.388 20.168l77.793-44.914-72.938-38.666z" transform="matrix(.26458 0 0 .26458 -10.56 -171.147)"/><path style="fill:#0030ff;fill-opacity:1;stroke:#000;stroke-width:5;stroke-linecap:round;stroke-linejoin:round;stroke-miterlimit:4;stroke-dasharray:none;stroke-opacity:1" d="m337.342 56.803-73.072 2.642v68.063a56.768 56.768 0 0 1 28.013 7.338l45.059-78.043z" transform="matrix(.26458 0 0 .26458 -10.56 -171.147)"/><circle style="opacity:1;fill:#000;fill-opacity:1;fill-rule:evenodd;stroke:#000;stroke-width:.26458333;stroke-linecap:round;stroke-linejoin:round;stroke-miterlimit:4;stroke-dasharray:none;stroke-opacity:1;paint-order:fill markers stroke" cx="59.361" cy="-122.631" r="4.06"/><path style="fill:none;stroke:#000;stroke-width:1.32291667;stroke-linecap:round;stroke-linejoin:miter;stroke-opacity:1;stroke-miterlimit:4;stroke-dasharray:none" d="m46.458-130.08 25.91 15.18M51.955-135.458l15.006 25.991M59.36-137.41v30.001M66.773-135.469l-15.015 26.007M72.265-130.081l-25.991 15.006M74.363-122.631H44.36"/></g></svg>
